src/assets/experienceicon.svg

<svg width="32" height="32" viewBox="0 0 32 32" fill="none" xmlns="http://www.w3.org/2000/svg">
<path opacity="0.4" d="M26.033 7.35645L24.1289 8.88614L25.0729 11.4136H27.168L27.9994 8.88614L26.033 7.35645Z" fill="#FF0000"/>
<path opacity="0.4" d="M5.72656 7.35645L3.11719 8.88623L4.67986 11.4137H7.17408L8.00549 8.88623L5.72656 7.35645Z" fill="#FF0000"/>
<path opacity="0.4" d="M16.2208 3.05908L12.7891 5.071L14.1764 8.39502H18.1245L19.218 5.071L16.2208 3.05908Z" fill="#FF0000"/>
<path opacity="0.4" d="M22.5645 26.7145C17.3537 23.3006 14.2701 23.3311 9.46875 26.7145V28.1219C15.0099 31.484 17.8626 31.3658 22.5645 28.1219V26.7145Z" fill="#FF0000"/>
<path d="M16.0021 11.6299C18.7997 11.6299 21.3332 12.7639 23.1662 14.5985C24.9992 16.4315 26.1348 18.965 26.1348 21.7626C26.1348 24.5601 25.0007 27.0937 23.1662 28.9267C21.3332 30.7597 18.7997 31.8953 16.0021 31.8953C13.2046 31.8953 10.671 30.7612 8.838 28.9267C7.00497 27.0937 5.86945 24.5601 5.86945 21.7626C5.86945 18.965 7.00347 16.4315 8.838 14.5985C10.671 12.7654 13.2046 11.6299 16.0021 11.6299ZM5.74945 7.96238L5.52595 8.65389C5.47605 8.80941 5.37625 8.94412 5.242 9.03714C5.10775 9.13017 4.94657 9.1763 4.78343 9.16839L4.09042 9.16689L4.67993 9.5929C4.81116 9.68815 4.90767 9.82367 4.95478 9.97882C5.0019 10.134 4.99704 10.3003 4.94094 10.4524L4.72343 11.1199L5.31144 10.6909C5.44023 10.5968 5.59596 10.5469 5.75544 10.5485C5.91492 10.5501 6.06961 10.6032 6.19646 10.6999L6.77246 11.1214L6.54596 10.4269C6.49738 10.2773 6.49748 10.1161 6.54627 9.96648C6.59505 9.8169 6.69 9.68663 6.81747 9.5944L7.40697 9.16689L6.67946 9.16839C6.34946 9.16839 6.06895 8.95239 5.97295 8.65389L5.74945 7.96238ZM4.27793 7.68337L5.03994 5.32233C5.08717 5.17183 5.18109 5.04028 5.30809 4.94672C5.43508 4.85316 5.58857 4.80246 5.7463 4.80196C5.90404 4.80146 6.05784 4.85119 6.18543 4.94393C6.31302 5.03668 6.40777 5.16764 6.45596 5.31783L7.21947 7.68487L9.65401 7.68037C9.90151 7.66237 10.1535 7.76887 10.311 7.98638C10.3684 8.06554 10.4096 8.15525 10.4323 8.25035C10.455 8.34546 10.4587 8.4441 10.4432 8.54064C10.4278 8.63719 10.3934 8.72974 10.3422 8.813C10.2909 8.89626 10.2237 8.9686 10.1445 9.02589L8.12999 10.4839L8.9025 12.848H8.901C8.9715 13.067 8.94 13.3145 8.796 13.514C8.67987 13.6726 8.50567 13.7789 8.31146 13.8095C8.11725 13.8401 7.91881 13.7927 7.75948 13.6775L5.74945 12.2104L3.78442 13.6445C3.66099 13.7495 3.50665 13.8115 3.34483 13.8208C3.18302 13.8302 3.02256 13.7865 2.88782 13.6964C2.75308 13.6063 2.65143 13.4747 2.59829 13.3216C2.54516 13.1684 2.54344 13.0021 2.5934 12.848L3.36741 10.4839L1.35288 9.02589V9.02439C1.25804 8.95572 1.18085 8.86553 1.12765 8.76122C1.07446 8.65691 1.04677 8.54147 1.04688 8.42438C1.04688 8.01488 1.37988 7.68187 1.78939 7.68187L4.27793 7.68637V7.68337ZM26.9643 5.32233L27.7263 7.68337L30.2148 7.67887C30.6243 7.67887 30.9573 8.01188 30.9573 8.42138C30.9573 8.66889 30.8358 8.88789 30.6513 9.02139V9.02289L28.6368 10.4809L29.4108 12.845C29.5383 13.2365 29.3238 13.655 28.9323 13.7825C28.6773 13.865 28.4103 13.8035 28.2198 13.6415L26.2548 12.2074L24.2447 13.6745C24.118 13.7668 23.9653 13.8166 23.8085 13.8167C23.6518 13.8169 23.499 13.7673 23.3721 13.6751C23.2453 13.5829 23.1509 13.4529 23.1026 13.3038C23.0543 13.1546 23.0545 12.994 23.1032 12.845H23.1017L23.8742 10.4809L21.8597 9.02289C21.7 8.90694 21.5928 8.73241 21.5616 8.53755C21.5304 8.34269 21.5777 8.1434 21.6932 7.98338C21.7678 7.88092 21.8673 7.79909 21.9822 7.74557C22.0971 7.69205 22.2237 7.66858 22.3502 7.67737L24.7847 7.68187L25.5483 5.31483C25.6728 4.92483 26.0913 4.70882 26.4828 4.83483C26.7213 4.91133 26.8938 5.09733 26.9643 5.31933V5.32233ZM26.4783 8.65389L26.2548 7.96238L26.0313 8.65389C25.983 8.80332 25.8886 8.9336 25.7617 9.02605C25.6348 9.11849 25.4818 9.16832 25.3248 9.16839L24.5972 9.16689L25.1868 9.5929C25.3142 9.68513 25.4092 9.8154 25.458 9.96498C25.5067 10.1146 25.5068 10.2758 25.4583 10.4254L25.2318 11.1199L25.8078 10.6984C25.9349 10.6024 26.0895 10.5498 26.2488 10.5482C26.4081 10.5465 26.5637 10.596 26.6928 10.6894L27.2808 11.1184L27.0633 10.4509C27.0076 10.2987 27.003 10.1326 27.0501 9.97752C27.0972 9.82247 27.1934 9.68695 27.3243 9.5914L27.9138 9.16539L27.2208 9.16689C27.0578 9.17422 26.8969 9.12785 26.7627 9.03491C26.6286 8.94197 26.5287 8.80759 26.4783 8.65239V8.65389ZM16.7116 0.625761L17.7031 3.69931L20.9402 3.69331C21.3497 3.69331 21.6827 4.02631 21.6827 4.43582C21.6827 4.68332 21.5612 4.90233 21.3767 5.03733L21.3782 5.03883L18.7562 6.93636L19.7612 10.0114C19.8887 10.4029 19.6742 10.8214 19.2842 10.9489C19.0292 11.0329 18.7622 10.9699 18.5716 10.8079L16.0021 8.93289L13.3876 10.8409C13.3088 10.8983 13.2195 10.9396 13.1247 10.9625C13.03 10.9853 12.9317 10.9892 12.8354 10.9741C12.7391 10.9589 12.6468 10.9249 12.5637 10.874C12.4806 10.8231 12.4083 10.7563 12.3511 10.6774C12.2818 10.5828 12.2361 10.473 12.2178 10.3571C12.1996 10.2413 12.2092 10.1228 12.246 10.0114H12.2446L13.2496 6.93636L10.6275 5.03883C10.4678 4.92288 10.3606 4.74834 10.3294 4.55348C10.2982 4.35862 10.3455 4.15934 10.461 3.99931C10.5354 3.89661 10.6348 3.81461 10.7498 3.76106C10.8648 3.70751 10.9915 3.68419 11.118 3.69331L14.3011 3.69931L15.2941 0.621261C15.3239 0.528332 15.3717 0.442185 15.4348 0.36775C15.4979 0.293315 15.575 0.232052 15.6618 0.187468C15.7486 0.142884 15.8434 0.115854 15.9406 0.107924C16.0379 0.0999937 16.1357 0.11132 16.2286 0.141253C16.4671 0.217755 16.6411 0.403758 16.7101 0.625761H16.7116ZM16.4566 4.66982L16.0036 3.2658L15.5506 4.66982C15.5022 4.81946 15.4076 4.94989 15.2804 5.04234C15.1531 5.13479 14.9999 5.18451 14.8426 5.18433L13.3666 5.18133L14.5621 6.04685C14.8156 6.23135 14.9356 6.56435 14.8321 6.87936L14.3731 8.28488L15.5551 7.42387C15.6823 7.32789 15.8368 7.27523 15.9961 7.27361C16.1554 7.27199 16.311 7.3215 16.4401 7.41487L17.6341 8.28488L17.1826 6.90636C17.1268 6.75429 17.1222 6.58813 17.1696 6.43322C17.217 6.27831 17.3138 6.14315 17.4451 6.04835L18.6406 5.18283L17.1991 5.18583C17.0361 5.19315 16.8752 5.14679 16.7411 5.05385C16.6069 4.96091 16.507 4.82653 16.4566 4.67132V4.66982ZM16.0036 23.0901C16.8766 23.0901 17.6671 22.7361 18.2401 22.1646C18.8117 21.5931 19.1657 20.8026 19.1657 19.9281C19.1657 19.055 18.8117 18.2645 18.2401 17.6915C17.9467 17.3975 17.5981 17.1644 17.2142 17.0056C16.8304 16.8467 16.419 16.7653 16.0036 16.766C15.1306 16.766 14.3401 17.12 13.7671 17.6915C13.4731 17.985 13.2399 18.3336 13.0811 18.7174C12.9223 19.1012 12.8409 19.5127 12.8416 19.9281C12.8416 20.8011 13.1956 21.5916 13.7671 22.1646C14.3386 22.7361 15.1291 23.0901 16.0036 23.0901ZM19.2932 23.2176C19.1837 23.3271 19.0682 23.4321 18.9482 23.5296C19.4747 23.6916 19.9832 23.8956 20.4692 24.1371C21.5612 24.6801 22.5392 25.4182 23.3597 26.3032C24.1757 24.9831 24.6467 23.4276 24.6467 21.7626C24.6467 19.3761 23.6792 17.216 22.1162 15.6515C20.5517 14.087 18.3916 13.121 16.0051 13.121C13.6186 13.121 11.4585 14.0885 9.89401 15.6515C8.32949 17.216 7.36347 19.3761 7.36347 21.7626C7.36347 23.4276 7.83448 24.9831 8.65049 26.3032C9.85061 25.0057 11.3726 24.0488 13.0621 23.5296C12.9421 23.4321 12.8266 23.3271 12.7171 23.2176C11.8755 22.3761 11.3535 21.2121 11.3535 19.9281C11.3535 18.644 11.874 17.48 12.7171 16.6385C13.5586 15.797 14.7226 15.275 16.0066 15.275C17.2906 15.275 18.4546 15.7955 19.2962 16.6385C20.1377 17.48 20.6597 18.644 20.6597 19.9281C20.6597 21.2121 20.1392 22.3761 19.2962 23.2176H19.2932ZM22.4507 27.5197C21.7122 26.6697 20.8136 25.9735 19.8062 25.4707C18.6616 24.9006 17.3716 24.5811 16.0036 24.5811C14.6371 24.5811 13.3456 24.9021 12.201 25.4707C11.1934 25.9731 10.2947 26.6694 9.55651 27.5197C9.66451 27.6412 9.77701 27.7597 9.89251 27.8752C11.457 29.4397 13.6171 30.4057 16.0036 30.4057C18.3901 30.4057 20.5502 29.4382 22.1147 27.8752C22.2302 27.7597 22.3427 27.6412 22.4507 27.5197Z" fill="#B30000"/>
</svg>

<svg width="32" height="32" viewBox="0 0 32 32" fill="none" xmlns="http://www.w3.org/2000/svg">
    <path opacity=".4" d="m26.033 7.357-1.904 1.53.944 2.527h2.095L28 8.886l-1.967-1.53zM5.727 7.356l-2.61 1.53 1.563 2.528h2.494l.831-2.528-2.278-1.53zM16.218 3.06 12.786 5.07l1.388 3.324h3.948l1.093-3.324-2.997-2.012zM22.564 26.715c-5.21-3.414-8.294-3.384-13.095 0v1.407c5.54 3.362 8.394 3.244 13.095 0v-1.407z" fill="red"/>
    <path d="M16.002 11.63c2.798 0 5.331 1.134 7.164 2.968a10.102 10.102 0 0 1 2.969 7.165c0 2.797-1.134 5.33-2.969 7.164a10.102 10.102 0 0 1-7.164 2.968 10.096 10.096 0 0 1-7.164-2.968 10.102 10.102 0 0 1-2.969-7.164c0-2.798 1.134-5.332 2.969-7.165a10.102 10.102 0 0 1 7.164-2.968zM5.75 7.962l-.223.692a.742.742 0 0 1-.743.514l-.693-.001.59.426a.744.744 0 0 1 .26.86l-.217.667.588-.43a.74.74 0 0 1 .885.01l.576.421-.226-.694a.744.744 0 0 1 .271-.833l.59-.427-.728.001a.743.743 0 0 1-.706-.514l-.224-.692zm-1.471-.279.762-2.36a.743.743 0 0 1 1.416-.005l.763 2.367 2.435-.005a.743.743 0 0 1 .49 1.346L8.13 10.484l.772 2.364h-.001a.745.745 0 0 1-.105.666.744.744 0 0 1-1.037.164L5.75 12.21l-1.965 1.434a.744.744 0 0 1-1.19-.796l.773-2.364-2.014-1.458v-.002a.74.74 0 0 1-.306-.6c0-.41.333-.742.742-.742l2.489.004v-.003zm22.686-2.36.762 2.36 2.489-.004a.743.743 0 0 1 .436 1.342v.002l-2.014 1.458.774 2.364a.743.743 0 0 1-1.191.796l-1.965-1.434-2.01 1.467a.742.742 0 0 1-1.142-.829h-.001l.772-2.364-2.014-1.458a.745.745 0 0 1 .49-1.346l2.435.005.763-2.367a.742.742 0 0 1 1.416.004v.003zm-.486 3.33-.223-.69-.224.69a.743.743 0 0 1-.706.515l-.728-.001.59.426a.745.745 0 0 1 .271.832l-.226.695.576-.422a.744.744 0 0 1 .885-.009l.588.43-.218-.668a.746.746 0 0 1 .261-.86l.59-.426-.693.002a.746.746 0 0 1-.743-.515v.002zM16.712.627l.991 3.073 3.237-.006a.743.743 0 0 1 .437 1.344l.001.002-2.622 1.897 1.005 3.075a.744.744 0 0 1-1.19.797l-2.569-1.875-2.614 1.908a.743.743 0 0 1-1.142-.83h-.001l1.005-3.075-2.623-1.897a.745.745 0 0 1 .491-1.346l3.183.006.993-3.078a.743.743 0 0 1 1.416.005h.002zm-.255 4.044-.453-1.404-.453 1.404a.743.743 0 0 1-.708.514l-1.476-.003 1.195.866a.743.743 0 0 1 .27.832l-.459 1.406 1.182-.861a.745.745 0 0 1 .885-.01l1.194.87-.451-1.378a.743.743 0 0 1 .262-.858l1.196-.865-1.442.003a.745.745 0 0 1-.742-.515V4.67zm-.453 18.42a3.158 3.158 0 0 0 3.162-3.162 3.157 3.157 0 0 0-3.162-3.162 3.158 3.158 0 0 0-3.162 3.162 3.158 3.158 0 0 0 3.162 3.162zm3.29.128c-.11.11-.226.214-.346.312a10.043 10.043 0 0 1 4.412 2.774 8.608 8.608 0 0 0 1.287-4.541 8.62 8.62 0 0 0-2.53-6.112 8.613 8.613 0 0 0-6.112-2.53 8.62 8.62 0 0 0-6.111 2.53 8.613 8.613 0 0 0-2.53 6.112c0 1.665.47 3.22 1.286 4.54a10.018 10.018 0 0 1 4.412-2.773 4.64 4.64 0 0 1-1.709-3.601c0-1.285.521-2.449 1.364-3.29a4.64 4.64 0 0 1 3.29-1.364c1.284 0 2.448.52 3.29 1.364a4.64 4.64 0 0 1 1.363 3.29c0 1.283-.52 2.447-1.364 3.289h-.003zm3.157 4.302a8.502 8.502 0 0 0-6.447-2.939 8.526 8.526 0 0 0-3.803.89 8.563 8.563 0 0 0-2.644 2.049 8.613 8.613 0 0 0 6.447 2.886 8.62 8.62 0 0 0 6.447-2.886z" fill="#004498"/>
</svg>
